media/logo.svg

<svg width="1962" height="691" xmlns="http://www.w3.org/2000/svg"><title>next-intl logo</title><g fill="none" fill-rule="evenodd"><path fill="#FFF" d="M0 0h1962v691H0z"/><path d="M759.8 457V320.8c2-.8 6.35-1.7 13.05-2.7 6.7-1 14.65-1.5 23.85-1.5 8.6 0 15.75 1.05 21.45 3.15 5.7 2.1 10.3 5.55 13.8 10.35s6 11 7.5 18.6c1.5 7.6 2.25 16.9 2.25 27.9V457h19.5v-86.7c0-10.6-1-20.3-3-29.1s-5.35-16.35-10.05-22.65c-4.7-6.3-11-11.15-18.9-14.55-7.9-3.4-17.75-5.1-29.55-5.1-14.2 0-26.2 1-36 3s-17.6 3.8-23.4 5.4V457h19.5Zm217.1 3.3c10.4 0 19.45-1.1 27.15-3.3 7.7-2.2 12.95-4.1 15.75-5.7l-3.6-16.8c-2.8 1.4-7.3 3.1-13.5 5.1-6.2 2-14.6 3-25.2 3-19.2 0-33.2-5.1-42-15.3-8.8-10.2-13.5-24.8-14.1-43.8h108.9c.2-1.4.35-2.9.45-4.5.1-1.6.15-3.2.15-4.8 0-25.8-5.65-44.9-16.95-57.3-11.3-12.4-26.45-18.6-45.45-18.6-8.6 0-16.95 1.65-25.05 4.95-8.1 3.3-15.3 8.35-21.6 15.15-6.3 6.8-11.4 15.25-15.3 25.35-3.9 10.1-5.85 21.95-5.85 35.55 0 11.8 1.4 22.65 4.2 32.55 2.8 9.9 7.3 18.45 13.5 25.65 6.2 7.2 14.1 12.8 23.7 16.8s21.2 6 34.8 6Zm33.9-93.3H922c.4-6.8 1.75-13.3 4.05-19.5 2.3-6.2 5.5-11.65 9.6-16.35 4.1-4.7 8.9-8.45 14.4-11.25 5.5-2.8 11.75-4.2 18.75-4.2 13.2 0 23.4 4.5 30.6 13.5 7.2 9 11 21.6 11.4 37.8Zm65.3 90c2.4-4.4 5.3-9.45 8.7-15.15 3.4-5.7 7.15-11.65 11.25-17.85 4.1-6.2 8.35-12.5 12.75-18.9 4.4-6.4 8.8-12.5 13.2-18.3 4.2 5.8 8.55 11.9 13.05 18.3s8.8 12.7 12.9 18.9c4.1 6.2 7.85 12.15 11.25 17.85 3.4 5.7 6.3 10.75 8.7 15.15h21c-3.8-7.4-7.95-14.9-12.45-22.5-4.5-7.6-9.15-14.95-13.95-22.05-4.8-7.1-9.6-13.95-14.4-20.55-4.8-6.6-9.3-12.7-13.5-18.3l49.5-71.7h-21.3l-40.8 59.4-40.2-59.4H1059l50.4 72.9c-9.4 12.8-18.6 25.85-27.6 39.15-9 13.3-17.6 27.65-25.8 43.05h20.1Zm195.2 3.3c8.2 0 15.8-1.15 22.8-3.45 7-2.3 11.9-4.35 14.7-6.15l-4.8-16.2c-2.8 1.6-6.7 3.35-11.7 5.25-5 1.9-11.6 2.85-19.8 2.85-4.8 0-9.2-.5-13.2-1.5s-7.4-3-10.2-6c-2.8-3-4.95-7.25-6.45-12.75s-2.25-12.65-2.25-21.45v-82.5h61.8v-16.5h-61.8v-49.2l-19.5 3.6v142.8c0 10.4.8 19.4 2.4 27 1.6 7.6 4.35 13.95 8.25 19.05 3.9 5.1 9.1 8.9 15.6 11.4s14.55 3.75 24.15 3.75Zm107.9-80.7v-18.9h-67.8v18.9h67.8Zm42.8-109.5c4 0 7.4-1.35 10.2-4.05 2.8-2.7 4.2-6.35 4.2-10.95s-1.4-8.25-4.2-10.95c-2.8-2.7-6.2-4.05-10.2-4.05-4 0-7.4 1.35-10.2 4.05-2.8 2.7-4.2 6.35-4.2 10.95s1.4 8.25 4.2 10.95c2.8 2.7 6.2 4.05 10.2 4.05Zm9.9 186.9V301.9h-19.5V457h19.5Zm70.1 0V320.8c2-.8 6.35-1.7 13.05-2.7 6.7-1 14.65-1.5 23.85-1.5 8.6 0 15.75 1.05 21.45 3.15 5.7 2.1 10.3 5.55 13.8 10.35s6 11 7.5 18.6c1.5 7.6 2.25 16.9 2.25 27.9V457h19.5v-86.7c0-10.6-1-20.3-3-29.1s-5.35-16.35-10.05-22.65c-4.7-6.3-11-11.15-18.9-14.55-7.9-3.4-17.75-5.1-29.55-5.1-14.2 0-26.2 1-36 3s-17.6 3.8-23.4 5.4V457h19.5Zm199.4 3.3c8.2 0 15.8-1.15 22.8-3.45 7-2.3 11.9-4.35 14.7-6.15l-4.8-16.2c-2.8 1.6-6.7 3.35-11.7 5.25-5 1.9-11.6 2.85-19.8 2.85-4.8 0-9.2-.5-13.2-1.5s-7.4-3-10.2-6c-2.8-3-4.95-7.25-6.45-12.75s-2.25-12.65-2.25-21.45v-82.5h61.8v-16.5h-61.8v-49.2l-19.5 3.6v142.8c0 10.4.8 19.4 2.4 27 1.6 7.6 4.35 13.95 8.25 19.05 3.9 5.1 9.1 8.9 15.6 11.4s14.55 3.75 24.15 3.75Zm105.2-.6 2.7-16.2c-4-.6-7.45-1.3-10.35-2.1-2.9-.8-5.25-2.05-7.05-3.75-1.8-1.7-3.15-4-4.05-6.9-.9-2.9-1.35-6.75-1.35-11.55v-195l-19.5 3.6v192c0 7.4.85 13.55 2.55 18.45 1.7 4.9 4.2 8.9 7.5 12 3.3 3.1 7.4 5.4 12.3 6.9s10.65 2.35 17.25 2.55Z" fill="#24292F" fill-rule="nonzero"/><g transform="translate(146 145.5)"><path d="M199.5 9c52.605 0 100.23 21.322 134.704 55.796C368.678 99.27 390 146.895 390 199.5c0 40.636-12.721 78.301-34.403 109.227a191.571 191.571 0 0 1-37.93 40.204C285.195 374.647 244.14 390 199.5 390c-52.605 0-100.23-21.322-134.704-55.796C30.322 299.73 9 252.105 9 199.5 9 146.895 30.322 99.27 64.796 64.796 99.27 30.322 146.895 9 199.5 9Z" stroke="#5FC3E7" stroke-width="18"/><path fill="#FFF" d="M323 313.5h42v32h-42z"/><circle fill="#5FC3E7" cx="328.7" cy="339.5" r="9"/><path stroke="#5FC3E7" stroke-width="18" stroke-linecap="square" d="m39.5 105 313.5.5"/><ellipse stroke="#5FC3E7" stroke-width="18" cx="201.5" cy="199.5" rx="93.5" ry="190.5"/><path stroke="#5FC3E7" stroke-width="18" stroke-linecap="square" d="M49 304.5h304M8.5 206h380"/></g></g></svg>

<?xml version="1.0" encoding="UTF-8"?>
<svg width="1962px" height="691px" viewBox="0 0 1962 691" version="1.1" xmlns="http://www.w3.org/2000/svg" xmlns:xlink="http://www.w3.org/1999/xlink">
    <title>logo copy 5</title>
    <g id="logo-copy-5" stroke="none" stroke-width="1" fill="none" fill-rule="evenodd">
        <rect fill="#FFFFFF" x="0" y="0" width="1962" height="691"></rect>
        <path d="M759.8,457 L759.8,320.8 C761.8,320 766.15,319.1 772.85,318.1 C779.55,317.1 787.5,316.6 796.7,316.6 C805.3,316.6 812.45,317.65 818.15,319.75 C823.85,321.85 828.45,325.3 831.95,330.1 C835.45,334.9 837.95,341.1 839.45,348.7 C840.95,356.3 841.7,365.6 841.7,376.6 L841.7,376.6 L841.7,457 L861.2,457 L861.2,370.3 C861.2,359.7 860.2,350 858.2,341.2 C856.2,332.4 852.85,324.85 848.15,318.55 C843.45,312.25 837.15,307.4 829.25,304 C821.35,300.6 811.5,298.9 799.7,298.9 C785.5,298.9 773.5,299.9 763.7,301.9 C753.9,303.9 746.1,305.7 740.3,307.3 L740.3,307.3 L740.3,457 L759.8,457 Z M976.9,460.3 C987.3,460.3 996.35,459.2 1004.05,457 C1011.75,454.8 1017,452.9 1019.8,451.3 L1019.8,451.3 L1016.2,434.5 C1013.4,435.9 1008.9,437.6 1002.7,439.6 C996.5,441.6 988.1,442.6 977.5,442.6 C958.3,442.6 944.3,437.5 935.5,427.3 C926.7,417.1 922,402.5 921.4,383.5 L921.4,383.5 L1030.3,383.5 C1030.5,382.1 1030.65,380.6 1030.75,379 C1030.85,377.4 1030.9,375.8 1030.9,374.2 C1030.9,348.4 1025.25,329.3 1013.95,316.9 C1002.65,304.5 987.5,298.3 968.5,298.3 C959.9,298.3 951.55,299.95 943.45,303.25 C935.35,306.55 928.15,311.6 921.85,318.4 C915.55,325.2 910.45,333.65 906.55,343.75 C902.65,353.85 900.7,365.7 900.7,379.3 C900.7,391.1 902.1,401.95 904.9,411.85 C907.7,421.75 912.2,430.3 918.4,437.5 C924.6,444.7 932.5,450.3 942.1,454.3 C951.7,458.3 963.3,460.3 976.9,460.3 Z M1010.8,367 L922,367 C922.4,360.2 923.75,353.7 926.05,347.5 C928.35,341.3 931.55,335.85 935.65,331.15 C939.75,326.45 944.55,322.7 950.05,319.9 C955.55,317.1 961.8,315.7 968.8,315.7 C982,315.7 992.2,320.2 999.4,329.2 C1006.6,338.2 1010.4,350.8 1010.8,367 L1010.8,367 Z M1076.1,457 C1078.5,452.6 1081.4,447.55 1084.8,441.85 C1088.2,436.15 1091.95,430.2 1096.05,424 C1100.15,417.8 1104.4,411.5 1108.8,405.1 C1113.2,398.7 1117.6,392.6 1122,386.8 C1126.2,392.6 1130.55,398.7 1135.05,405.1 C1139.55,411.5 1143.85,417.8 1147.95,424 C1152.05,430.2 1155.8,436.15 1159.2,441.85 C1162.6,447.55 1165.5,452.6 1167.9,457 L1167.9,457 L1188.9,457 C1185.1,449.6 1180.95,442.1 1176.45,434.5 C1171.95,426.9 1167.3,419.55 1162.5,412.45 C1157.7,405.35 1152.9,398.5 1148.1,391.9 C1143.3,385.3 1138.8,379.2 1134.6,373.6 L1134.6,373.6 L1184.1,301.9 L1162.8,301.9 L1122,361.3 L1081.8,301.9 L1059,301.9 L1109.4,374.8 C1100,387.6 1090.8,400.65 1081.8,413.95 C1072.8,427.25 1064.2,441.6 1056,457 L1056,457 L1076.1,457 Z M1271.3,460.3 C1279.5,460.3 1287.1,459.15 1294.1,456.85 C1301.1,454.55 1306,452.5 1308.8,450.7 L1308.8,450.7 L1304,434.5 C1301.2,436.1 1297.3,437.85 1292.3,439.75 C1287.3,441.65 1280.7,442.6 1272.5,442.6 C1267.7,442.6 1263.3,442.1 1259.3,441.1 C1255.3,440.1 1251.9,438.1 1249.1,435.1 C1246.3,432.1 1244.15,427.85 1242.65,422.35 C1241.15,416.85 1240.4,409.7 1240.4,400.9 L1240.4,400.9 L1240.4,318.4 L1302.2,318.4 L1302.2,301.9 L1240.4,301.9 L1240.4,252.7 L1220.9,256.3 L1220.9,399.1 C1220.9,409.5 1221.7,418.5 1223.3,426.1 C1224.9,433.7 1227.65,440.05 1231.55,445.15 C1235.45,450.25 1240.65,454.05 1247.15,456.55 C1253.65,459.05 1261.7,460.3 1271.3,460.3 Z M1379.2,379.6 L1379.2,360.7 L1311.4,360.7 L1311.4,379.6 L1379.2,379.6 Z M1422,270.1 C1426,270.1 1429.4,268.75 1432.2,266.05 C1435,263.35 1436.4,259.7 1436.4,255.1 C1436.4,250.5 1435,246.85 1432.2,244.15 C1429.4,241.45 1426,240.1 1422,240.1 C1418,240.1 1414.6,241.45 1411.8,244.15 C1409,246.85 1407.6,250.5 1407.6,255.1 C1407.6,259.7 1409,263.35 1411.8,266.05 C1414.6,268.75 1418,270.1 1422,270.1 Z M1431.9,457 L1431.9,301.9 L1412.4,301.9 L1412.4,457 L1431.9,457 Z M1502,457 L1502,320.8 C1504,320 1508.35,319.1 1515.05,318.1 C1521.75,317.1 1529.7,316.6 1538.9,316.6 C1547.5,316.6 1554.65,317.65 1560.35,319.75 C1566.05,321.85 1570.65,325.3 1574.15,330.1 C1577.65,334.9 1580.15,341.1 1581.65,348.7 C1583.15,356.3 1583.9,365.6 1583.9,376.6 L1583.9,376.6 L1583.9,457 L1603.4,457 L1603.4,370.3 C1603.4,359.7 1602.4,350 1600.4,341.2 C1598.4,332.4 1595.05,324.85 1590.35,318.55 C1585.65,312.25 1579.35,307.4 1571.45,304 C1563.55,300.6 1553.7,298.9 1541.9,298.9 C1527.7,298.9 1515.7,299.9 1505.9,301.9 C1496.1,303.9 1488.3,305.7 1482.5,307.3 L1482.5,307.3 L1482.5,457 L1502,457 Z M1701.4,460.3 C1709.6,460.3 1717.2,459.15 1724.2,456.85 C1731.2,454.55 1736.1,452.5 1738.9,450.7 L1738.9,450.7 L1734.1,434.5 C1731.3,436.1 1727.4,437.85 1722.4,439.75 C1717.4,441.65 1710.8,442.6 1702.6,442.6 C1697.8,442.6 1693.4,442.1 1689.4,441.1 C1685.4,440.1 1682,438.1 1679.2,435.1 C1676.4,432.1 1674.25,427.85 1672.75,422.35 C1671.25,416.85 1670.5,409.7 1670.5,400.9 L1670.5,400.9 L1670.5,318.4 L1732.3,318.4 L1732.3,301.9 L1670.5,301.9 L1670.5,252.7 L1651,256.3 L1651,399.1 C1651,409.5 1651.8,418.5 1653.4,426.1 C1655,433.7 1657.75,440.05 1661.65,445.15 C1665.55,450.25 1670.75,454.05 1677.25,456.55 C1683.75,459.05 1691.8,460.3 1701.4,460.3 Z M1806.6,459.7 L1809.3,443.5 C1805.3,442.9 1801.85,442.2 1798.95,441.4 C1796.05,440.6 1793.7,439.35 1791.9,437.65 C1790.1,435.95 1788.75,433.65 1787.85,430.75 C1786.95,427.85 1786.5,424 1786.5,419.2 L1786.5,419.2 L1786.5,224.2 L1767,227.8 L1767,419.8 C1767,427.2 1767.85,433.35 1769.55,438.25 C1771.25,443.15 1773.75,447.15 1777.05,450.25 C1780.35,453.35 1784.45,455.65 1789.35,457.15 C1794.25,458.65 1800,459.5 1806.6,459.7 L1806.6,459.7 Z" id="next-intl" fill="#24292F" fill-rule="nonzero"></path>
        <g id="Oval-2" transform="translate(146.000000, 145.500000)">
            <path d="M199.5,9 C252.105122,9 299.730122,30.3224388 334.203842,64.7961582 C368.677561,99.2698776 390,146.894878 390,199.5 C390,240.135857 377.278818,277.80115 355.596981,308.726786 C348.309466,319.121247 340.010248,328.754557 330.84244,337.483903 C326.629707,341.495156 322.23356,345.315533 317.667858,348.931147 C285.193938,374.647487 244.139569,390 199.5,390 C146.894878,390 99.2698776,368.677561 64.7961582,334.203842 C30.3224388,299.730122 9,252.105122 9,199.5 C9,146.894878 30.3224388,99.2698776 64.7961582,64.7961582 C99.2698776,30.3224388 146.894878,9 199.5,9 Z" id="Oval" stroke="#5FC3E7" stroke-width="18"></path>
            <rect id="Rectangle" fill="#FFFFFF" x="323" y="313.5" width="42" height="32"></rect>
            <circle id="Oval" fill="#5FC3E7" cx="328.7" cy="339.5" r="9"></circle>
            <line x1="39.5" y1="105" x2="353" y2="105.5" id="Line-3" stroke="#5FC3E7" stroke-width="18" stroke-linecap="square"></line>
            <ellipse id="Oval" stroke="#5FC3E7" stroke-width="18" cx="201.5" cy="199.5" rx="93.5" ry="190.5"></ellipse>
            <line x1="49" y1="304.5" x2="353" y2="304.5" id="Line-3-Copy" stroke="#5FC3E7" stroke-width="18" stroke-linecap="square"></line>
            <line x1="8.5" y1="206" x2="388.5" y2="206" id="Line-2" stroke="#5FC3E7" stroke-width="18" stroke-linecap="square"></line>
        </g>
    </g>
</svg>
